humanity-icon-theme/Humanity/apps/22/fusion-icon-panel.svg

<?xml version="1.0" encoding="UTF-8" standalone="no"?>
<!-- Created with Inkscape (http://www.inkscape.org/) -->

<svg
   xmlns:svg="http://www.w3.org/2000/svg"
   xmlns="http://www.w3.org/2000/svg"
   version="1.1"
   width="22"
   height="22"
   id="svg2896">
  <defs
     id="defs2898" />
  <g
     transform="translate(0,7.0000001)"
     id="layer1">
    <g
       transform="translate(-2,-5.0000002)"
       id="layer1-3">
      <path
         d="m 3.5,14.5 0,-11.9999999 14,-2 0,15.9999999 -14,-2 z"
         id="rect3086"
         style="fill:none;stroke:#606060;stroke-width:0.99984139;stroke-linecap:round;stroke-linejoin:round;stroke-miterlimit:4;stroke-opacity:1;stroke-dasharray:none;display:inline" />
      <path
         d="m 10.936,15.757233 c 0,0 -2.752679,-6.0893544 -2.752679,-6.0893544 L 6.5,11.972643 6.5,4.4547485 13.085,8.4000001 9.501,8.5941938 c 0,0 5.572,7.3458062 5.572,7.3458062"
         id="path3970-2"
         style="fill:none;stroke:#606060;stroke-width:1;stroke-linecap:butt;stroke-linejoin:round;stroke-miterlimit:4;stroke-opacity:1;stroke-dasharray:none;stroke-dashoffset:0;marker:none;visibility:visible;display:inline;overflow:visible" />
      <path
         d="m 4.5,14.5 0,-11.9999999 12,-1 0,13.9999999 -12,-1 z"
         id="path3598"
         style="opacity:0.4;fill:none;stroke:#606060;stroke-width:0.99984139;stroke-linecap:round;stroke-linejoin:round;stroke-miterlimit:4;stroke-opacity:1;stroke-dasharray:none;display:inline" />
      <path
         d="M 21.5,14.5 21.5,3.5000795 18.499921,1.9000001 18.499921,15.3 21.5,14.5 z"
         id="path3634"
         style="opacity:0.4;fill:none;stroke:#606060;stroke-width:0.99984139;stroke-linecap:round;stroke-linejoin:round;stroke-miterlimit:4;stroke-opacity:1;stroke-dasharray:none;display:inline" />
      <path
         d="m 22.5,15.500079 0,-13.0000789 -5,-2 0,15.9999999 5,-0.999921 z"
         id="path3636"
         style="fill:none;stroke:#606060;stroke-width:0.99984139;stroke-linecap:round;stroke-linejoin:round;stroke-miterlimit:4;stroke-opacity:1;stroke-dasharray:none;display:inline" />
    </g>
  </g>
</svg>

<?xml version="1.0" encoding="UTF-8" standalone="no"?>
<!-- Created with Inkscape (http://www.inkscape.org/) -->
<svg id="svg2896" xmlns="http://www.w3.org/2000/svg" height="22" width="22" version="1.1">
 <g id="layer1" transform="translate(0 7)">
  <g id="layer1-3" transform="translate(-2 -5)">
   <path id="rect3086" style="stroke-linejoin:round;stroke:#606060;stroke-linecap:round;stroke-width:.99984;fill:none" d="m3.5 14.5v-12l14-2v16l-14-2z"/>
   <path id="path3970-2" style="stroke-linejoin:round;stroke:#606060;fill:none" d="m10.936 15.757s-2.7527-6.0894-2.7527-6.0894l-1.6833 2.3054v-7.5183l6.585 3.9453-3.584 0.1942s5.572 7.3458 5.572 7.3458"/>
   <path id="path3598" style="opacity:.4;stroke-linejoin:round;stroke:#606060;stroke-linecap:round;stroke-width:.99984;fill:none" d="m4.5 14.5v-12l12-1v14l-12-1z"/>
   <path id="path3634" style="opacity:.4;stroke-linejoin:round;stroke:#606060;stroke-linecap:round;stroke-width:.99984;fill:none" d="m21.5 14.5v-11l-3-1.6v13.4l3-0.8z"/>
   <path id="path3636" style="stroke-linejoin:round;stroke:#606060;stroke-linecap:round;stroke-width:.99984;fill:none" d="m22.5 15.5v-13l-5-2v16l5-0.99992z"/>
  </g>
 </g>
</svg>
